src/icons/sync-ignored.svg

<svg width="16" height="16" viewBox="0 0 16 16" fill="none" xmlns="http://www.w3.org/2000/svg">
<path fill-rule="evenodd" clip-rule="evenodd" d="M5.46829 3.68741L4.71084 2.98108C5.65539 2.36081 6.78556 2 8 2C11.2401 2 13.8803 4.56823 13.996 7.78004L15.19 6.60005L15.94 7.36005L13.85 9.43005L13.09 9.42005L11 7.31005L11.76 6.55005L12.9961 7.80051C12.8914 5.13157 10.6946 3 8 3C7.07616 3 6.21084 3.25055 5.46829 3.68741ZM10.0182 12.576L10.802 13.3069C9.96565 13.7494 9.01209 14 8 14C4.77573 14 2.14547 11.4568 2.00583 8.26691L0.78 9.50003L0 8.73003L2.09 6.66003L2.85 6.67003L4.94 8.79003L4.18 9.55003L3.01348 8.36995C3.2028 10.9586 5.363 13 8 13C8.71815 13 9.40094 12.8486 10.0182 12.576Z" fill="#C5C5C5"/>
<rect x="1.12262" y="2.94897" width="1" height="16.2916" transform="rotate(-47 1.12262 2.94897)" fill="#C4C4C4"/>
</svg>

<svg width="16" height="16" xmlns="http://www.w3.org/2000/svg"><path fill-rule="evenodd" clip-rule="evenodd" d="M5.468 3.687l-.757-.706a6 6 0 0 1 9.285 4.799L15.19 6.6l.75.76-2.09 2.07-.76-.01L11 7.31l.76-.76 1.236 1.25a5 5 0 0 0-7.528-4.113zm4.55 8.889l.784.73a6 6 0 0 1-8.796-5.04L.78 9.5 0 8.73l2.09-2.07.76.01 2.09 2.12-.76.76-1.167-1.18a5 5 0 0 0 7.005 4.206z"/><path d="M1.123 2.949l.682-.732L13.72 13.328l-.682.732z"/></svg>
